X:1
T:Title
%%score 1 2
L:1/8
M:3/4
K:F
V:1 treble nm="Grand Piano, Soprano"
V:2 bass nm="Choir Pad, Complete in Thee, LMD"
V:1
 C2 [FA]2 [EG]2 | F6 | [CF]2 [CE]2 [CD]2 | [CE]6 | [B,C]2 [B,E]2 [A,F]2 | [B,G]6 | %6
w: By~Talmage~J.~Bittikofer,~1921 * *||||||
 [B,E]2 [B,C]2 [DB]2 | [CA]6 | C2 [FA]2 [EG]2 | F6 | F2 [EG]2 [_EA]2 | [DB]6 | [Fd]2 [Fd]2 [Fd]2 | %13
w: |||||||
 [Fc]6 | [FA]2 [EG]3 F | F6 | [Fc]2 [Fc]2 [Fc]2 | [Fc]6 | [FA]2 [FG]2 F2 | [CE]6 | %20
w: |||||||
 [Ec]2 [Ec]2 [Ed]2 | [Ec]6 | [EB]2 [EG]2 [E_A]2 | [FA]6 | C2 [FA]2 [EG]2 | F6 | F2 [EG]2 [_EA]2 | %27
w: |||||||
 [DB]6 | [Fd]2 [Fd]2 [Fd]2 | [Fc]6 | [EB]2 [EA]2 [EG]2 | F6- | F2 z2 z2 |] %33
w: ||||||
V:2
 [F,A,]2 [F,C]2 [F,B,]2 | [F,A,]6 | [F,A,]2 [C,G,]2 [C,F,]2 | [C,G,]6 | [C,E,]2 [C,G,]2 [C,F,]2 | %5
 [C,E,]6 | [C,G,]2 [C,G,]2 [C,E,]2 | F,6 | [F,A,]2 [F,C]2 [F,B,]2 | [F,A,]6 | %10
 [F,A,]2 [F,B,]2 [F,C]2 | [B,,B,]6 | [=B,,_A,]2 [B,,A,]2 [B,,A,]2 | [C,A,]6 | %14
 [C,C]2 [C,B,]3 [F,A,] | [F,A,]6 | [F,A,]2 [F,A,]2 [F,A,]2 | [F,A,]6 | [F,C]2 [F,B,]2 [F,A,]2 | %19
 [G,C]6 | [C,B,]2 [C,B,]2 [C,B,]2 | [C,B,]6 | [C,G,]2 [C,C]2 [C,C]2 | [F,C]6 | %24
 [F,A,]2 [F,C]2 [F,B,]2 | [F,A,]6 | [F,A,]2 [F,B,]2 [F,C]2 | [B,,B,]6 | %28
 [=B,,_A,]2 [B,,A,]2 [B,,A,]2 | [C,A,]6 | [C,G,]2 [C,C]2 [C,B,]2 | [F,A,]6- | [F,A,]2 z2 z2 |] %33

